third_party/noto/noto_2/emoji_u1f4dc.svg

<svg enable-background="new 0 0 128 128" viewBox="0 0 128 128" xmlns="http://www.w3.org/2000/svg"><linearGradient id="c" x1="64" x2="64" y1="4.9627" y2="123.9" gradientUnits="userSpaceOnUse"><stop stop-color="#A1887F" offset=".0147"/><stop stop-color="#9D8279" offset=".2039"/><stop stop-color="#8D6E63" offset="1"/></linearGradient><path d="m110.16 96.56h-0.02v-78.46c0-7.64-6.2-13.85-13.85-13.85h-78.45c-7.64 0-13.85 6.2-13.85 13.85s6.2 13.85 13.85 13.85h0.02 9.22v78.46c0 7.64 6.2 13.85 13.85 13.85 0.1 0 0.18-0.03 0.27-0.03h68.98v0.03c7.65 0 13.85-6.2 13.85-13.85-0.02-7.65-6.22-13.85-13.87-13.85z" fill="url(#c)"/><path d="m17.84 8.87c5.1 0 9.23 4.14 9.23 9.23v4.44c-0.1-5-4.18-9.05-9.21-9.05-4.3 0-7.89 2.97-8.91 6.95-0.2-0.75-0.34-1.52-0.34-2.34 0-5.09 4.14-9.23 9.23-9.23z" fill="#5D4037"/><circle cx="17.86" cy="21.2" r="4.62" fill="#6D4C41"/><linearGradient id="b" x1="66.811" x2="66.811" y1="9.5233" y2="119.62" gradientUnits="userSpaceOnUse"><stop stop-color="#D7C1AE" offset=".0147"/><stop stop-color="#D1BBA9" offset=".2517"/><stop stop-color="#C0A99A" offset=".5799"/><stop stop-color="#A48C82" offset=".9599"/><stop stop-color="#A1887F" offset="1"/></linearGradient><path d="m31.68 110.4v-78.46h0.02v-9.23h-0.02v-4.61c0-3.56-1.38-6.78-3.59-9.23h68.21c5.09 0 9.23 4.14 9.23 9.23v78.46h-64.6-0.01-0.01c-5.08 0.01-9.21 4.14-9.21 9.23s4.14 9.23 9.23 9.23c4.28 0 7.85-2.94 8.9-6.9 0.18 0.73 0.31 1.49 0.31 2.28 0 5-3.99 9.06-8.96 9.2h-0.28v0.03c-5.08-0.01-9.22-4.14-9.22-9.23z" fill="url(#b)"/><path d="m45.55 105.79c0 2.54-2.07 4.62-4.62 4.62-2.54 0-4.62-2.07-4.62-4.62 0-2.54 2.07-4.61 4.61-4.62h0.02c2.55 0.02 4.61 2.08 4.61 4.62z" fill="#5D4037"/><path d="m110.16 119.63v-0.03h-58.97c2.19-2.45 3.57-5.65 3.57-9.2 0-3.56-1.38-6.78-3.59-9.23h58.99c5.09 0 9.23 4.14 9.23 9.23s-4.14 9.23-9.23 9.23z"/><linearGradient id="a" x1="85.263" x2="85.263" y1="101.54" y2="120.86" gradientUnits="userSpaceOnUse"><stop stop-color="#D7C1AE" offset=".0147"/><stop stop-color="#CFB9A7" offset=".2413"/><stop stop-color="#B9A294" offset=".6006"/><stop stop-color="#A1887F" offset=".9169"/></linearGradient><path d="m110.14 119.63v-0.03h-58.97c2.2-2.45 3.57-5.65 3.57-9.2 0-3.56-1.38-6.78-3.59-9.23h58.99c5.09 0 9.23 4.14 9.23 9.23 0.01 5.09-4.13 9.23-9.23 9.23z" fill="url(#a)"/><g fill="#8D6E63"><path d="m94.5 30.43h-48.57c-1.11 0-2.01-1.03-2.01-2.3s0.9-2.3 2.01-2.3h48.57c1.11 0 2.01 1.03 2.01 2.3s-0.9 2.3-2.01 2.3z"/><path d="m94.5 44.49h-48.57c-1.11 0-2.01-1.03-2.01-2.3s0.9-2.3 2.01-2.3h48.57c1.11 0 2.01 1.03 2.01 2.3 0 1.26-0.9 2.3-2.01 2.3z"/><path d="m94.5 58.55h-48.57c-1.11 0-2.01-1.03-2.01-2.3s0.9-2.3 2.01-2.3h48.57c1.11 0 2.01 1.03 2.01 2.3s-0.9 2.3-2.01 2.3z"/><path d="m94.5 72.61h-48.57c-1.11 0-2.01-1.03-2.01-2.3s0.9-2.3 2.01-2.3h48.57c1.11 0 2.01 1.03 2.01 2.3s-0.9 2.3-2.01 2.3z"/><path d="m66.71 86.67h-20.78c-1.11 0-2.01-1.03-2.01-2.3s0.9-2.3 2.01-2.3h20.77c1.11 0 2.01 1.03 2.01 2.3s-0.9 2.3-2 2.3z"/></g><g opacity=".2"><path d="m96.3 7.25c5.98 0 10.85 4.87 10.85 10.85v78.46c0 1.66 1.36 3 3.02 3 5.98 0 10.85 4.87 10.85 10.85 0 5.86-4.67 10.65-10.48 10.84-0.12-0.01-0.24-0.02-0.36-0.02h-68.99c-0.17 0-0.32 0.01-0.43 0.03-5.91-0.09-10.68-4.92-10.68-10.84v-78.48c0-1.66-1.34-3-3-3h-9.23c-5.98 0-10.85-4.87-10.85-10.85s4.86-10.84 10.84-10.84h78.46m0-3h-78.46c-7.64 0-13.85 6.2-13.85 13.85 0 7.64 6.2 13.85 13.85 13.85h0.02 9.22v78.46c0 7.64 6.2 13.85 13.85 13.85 0.1 0 0.18-0.03 0.27-0.03h68.98v0.03c7.65 0 13.85-6.2 13.85-13.85s-6.2-13.85-13.85-13.85h-0.02v-78.46c-0.02-7.65-6.21-13.85-13.86-13.85z" fill="#424242"/></g></svg>

<svg width="128" height="128" style="enable-background:new 0 0 128 128;" xmlns="http://www.w3.org/2000/svg" xmlns:xlink="http://www.w3.org/1999/xlink">
  <g id="图层_1">
    <g>
      <linearGradient id="SVGID_1_" gradientUnits="userSpaceOnUse" x1="64" x2="64" y1="4.9627" y2="123.9005">
        <stop offset="0.0147" style="stop-color:#A1887F"/>
        <stop offset="0.2039" style="stop-color:#9D8279"/>
        <stop offset="1" style="stop-color:#8D6E63"/>
      </linearGradient>
      <path d="M110.16,96.56h-0.02V64.25V18.1c0-7.64-6.2-13.85-13.85-13.85H17.84 c-7.64,0-13.85,6.2-13.85,13.85s6.2,13.85,13.85,13.85l0,0c0.01,0,0.01,0,0.02,0h4.62h4.6v32.31v46.15 c0,7.64,6.2,13.85,13.85,13.85c0.1,0,0.18-0.03,0.27-0.03h68.98v0.03c7.65,0,13.85-6.2,13.85-13.85 C124.01,102.76,117.81,96.56,110.16,96.56z" style="fill:url(#SVGID_1_);"/>
      <path d="M17.84,8.87c5.1,0,9.23,4.14,9.23,9.23v4.44c-0.1-5-4.18-9.05-9.21-9.05 c-4.3,0-7.89,2.97-8.91,6.95c-0.2-0.75-0.34-1.52-0.34-2.34C8.61,13.01,12.75,8.87,17.84,8.87z" style="fill:#5D4037;"/>
      <circle cx="17.86" cy="21.2" r="4.62" style="fill:#6D4C41;"/>
      <linearGradient id="SVGID_3_" gradientUnits="userSpaceOnUse" x1="66.8107" x2="66.8107" y1="9.5233" y2="119.6193">
        <stop offset="0.0147" style="stop-color:#D7C1AE"/>
        <stop offset="0.2517" style="stop-color:#D1BBA9"/>
        <stop offset="0.5799" style="stop-color:#C0A99A"/>
        <stop offset="0.9599" style="stop-color:#A48C82"/>
        <stop offset="1" style="stop-color:#A1887F"/>
      </linearGradient>
      <path d="M31.68,110.4V64.25V31.94h0.02v-9.23h-0.02V18.1c0-3.56-1.38-6.78-3.59-9.23H96.3 c5.09,0,9.23,4.14,9.23,9.23v46.15v32.31h-64.6c0,0,0,0-0.01,0c0,0,0,0-0.01,0l0,0c-5.08,0.01-9.21,4.14-9.21,9.23 c0,5.09,4.14,9.23,9.23,9.23c4.28,0,7.85-2.94,8.9-6.9c0.18,0.73,0.31,1.49,0.31,2.28c0,5-3.99,9.06-8.96,9.2H40.9v0.03 C35.82,119.62,31.68,115.49,31.68,110.4z" style="fill:url(#SVGID_3_);"/>
      <path d="M45.55,105.79c0,2.54-2.07,4.62-4.62,4.62c-2.54,0-4.62-2.07-4.62-4.62c0-2.54,2.07-4.61,4.61-4.62 c0.01,0,0.01,0,0.02,0C43.49,101.19,45.55,103.25,45.55,105.79z" style="fill:#5D4037;"/>
      <path d="M110.16,119.63v-0.03H51.19c2.19-2.45,3.57-5.65,3.57-9.2c0-3.56-1.38-6.78-3.59-9.23h58.99c5.09,0,9.23,4.14,9.23,9.23 C119.39,115.49,115.25,119.63,110.16,119.63z"/>
      <linearGradient id="SVGID_4_" gradientUnits="userSpaceOnUse" x1="85.2631" x2="85.2631" y1="101.5393" y2="120.8565">
        <stop offset="0.0147" style="stop-color:#D7C1AE"/>
        <stop offset="0.2413" style="stop-color:#CFB9A7"/>
        <stop offset="0.6006" style="stop-color:#B9A294"/>
        <stop offset="0.9169" style="stop-color:#A1887F"/>
      </linearGradient>
      <path d="M110.14,119.63v-0.03H51.17c2.2-2.45,3.57-5.65,3.57-9.2c0-3.56-1.38-6.78-3.59-9.23h58.99 c5.09,0,9.23,4.14,9.23,9.23C119.38,115.49,115.24,119.63,110.14,119.63z" style="fill:url(#SVGID_4_);"/>
      <g>
        <path d="M94.5,30.43H45.93c-1.11,0-2.01-1.03-2.01-2.3s0.9-2.3,2.01-2.3H94.5c1.11,0,2.01,1.03,2.01,2.3 S95.61,30.43,94.5,30.43z" style="fill:#8D6E63;"/>
        <path d="M94.5,44.49H45.93c-1.11,0-2.01-1.03-2.01-2.3c0-1.27,0.9-2.3,2.01-2.3H94.5 c1.11,0,2.01,1.03,2.01,2.3C96.51,43.45,95.61,44.49,94.5,44.49z" style="fill:#8D6E63;"/>
        <path d="M94.5,58.55H45.93c-1.11,0-2.01-1.03-2.01-2.3c0-1.27,0.9-2.3,2.01-2.3H94.5 c1.11,0,2.01,1.03,2.01,2.3C96.51,57.52,95.61,58.55,94.5,58.55z" style="fill:#8D6E63;"/>
        <path d="M94.5,72.61H45.93c-1.11,0-2.01-1.03-2.01-2.3s0.9-2.3,2.01-2.3H94.5c1.11,0,2.01,1.03,2.01,2.3 S95.61,72.61,94.5,72.61z" style="fill:#8D6E63;"/>
        <path d="M66.71,86.67H45.93c-1.11,0-2.01-1.03-2.01-2.3c0-1.27,0.9-2.3,2.01-2.3h20.77 c1.11,0,2.01,1.03,2.01,2.3C68.71,85.64,67.81,86.67,66.71,86.67z" style="fill:#8D6E63;"/>
      </g>
    </g>
    <g style="opacity:0.2;">
      <path d="M96.3,7.25c5.98,0,10.85,4.87,10.85,10.85v46.15v32.31c0,1.66,1.36,3,3.02,3 c5.98,0,10.85,4.87,10.85,10.85c0,5.86-4.67,10.65-10.48,10.84c-0.12-0.01-0.24-0.02-0.36-0.02H41.19 c-0.17,0-0.32,0.01-0.43,0.03c-5.91-0.09-10.68-4.92-10.68-10.84V64.25V31.94c0-1.66-1.34-3-3-3h-4.6h-4.63 c-5.98,0-10.85-4.87-10.85-10.85S11.86,7.25,17.84,7.25H96.3 M96.3,4.25H17.84c-7.64,0-13.85,6.2-13.85,13.85 c0,7.64,6.2,13.85,13.85,13.85c0.01,0,0.01,0,0.02,0h4.62h4.6v32.31v46.15c0,7.64,6.2,13.85,13.85,13.85 c0.1,0,0.18-0.03,0.27-0.03h68.98v0.03c7.65,0,13.85-6.2,13.85-13.85c0-7.65-6.2-13.85-13.85-13.85h-0.02V64.25V18.1 C110.14,10.45,103.95,4.25,96.3,4.25L96.3,4.25z" style="fill:#424242;"/>
    </g>
  </g>
  <g id="Layer_2" style="display:none;">
    <g style="display:inline;">
      <g style="opacity:0.6;">
        <circle cx="64" cy="64" r="28" style="opacity:0.61;fill:none;stroke:#000000;stroke-width:0.2625;stroke-miterlimit:10;"/>
        <line style="opacity:0.61;fill:none;stroke:#000000;stroke-width:0.25;stroke-miterlimit:10;" x1="84" x2="84" y1="0" y2="128"/>
        <line style="opacity:0.61;fill:none;stroke:#000000;stroke-width:0.25;stroke-miterlimit:10;" x1="44" x2="44" y1="0" y2="128"/>
        <line style="opacity:0.61;fill:none;stroke:#000000;stroke-width:0.25;stroke-miterlimit:10;" x1="64" x2="64" y1="0" y2="128"/>
        <line style="opacity:0.61;fill:none;stroke:#000000;stroke-width:0.25;stroke-miterlimit:10;" x1="128" x2="0" y1="64" y2="64"/>
        <line style="opacity:0.61;fill:none;stroke:#000000;stroke-width:0.25;stroke-miterlimit:10;" x1="128" x2="0" y1="44" y2="44"/>
        <line style="opacity:0.61;fill:none;stroke:#000000;stroke-width:0.25;stroke-miterlimit:10;" x1="128" x2="0" y1="83.75" y2="83.75"/>
        <line style="opacity:0.61;fill:none;stroke:#000000;stroke-width:0.25;stroke-miterlimit:10;" x1="128" x2="0" y1="128" y2="0"/>
        <line style="opacity:0.61;fill:none;stroke:#000000;stroke-width:0.25;stroke-miterlimit:10;" x1="0" x2="128" y1="128" y2="0"/>
        <g style="opacity:0.61;">
          <path d="M64,4.26c32.94,0,59.74,26.8,59.74,59.74S96.94,123.74,64,123.74S4.26,96.94,4.26,64S31.06,4.26,64,4.26 M64,4 C30.86,4,4,30.86,4,64s26.86,60,60,60s60-26.86,60-60S97.14,4,64,4L64,4z"/>
        </g>
        <path d="M107.97,115.97H20.03 c-4.42,0-8.03-3.61-8.03-8.03V20.03c0-4.42,3.61-8.03,8.03-8.03h87.94c4.42,0,8.03,3.61,8.03,8.03v87.91 C116,112.36,112.39,115.97,107.97,115.97z" style="opacity:0.61;fill:none;stroke:#000000;stroke-width:0.2578;stroke-miterlimit:10;"/>
        <path d="M100,124H28c-4.4,0-8-3.6-8-8 V12c0-4.4,3.6-8,8-8h72c4.4,0,8,3.6,8,8v104C108,120.4,104.4,124,100,124z" style="opacity:0.61;fill:none;stroke:#000000;stroke-width:0.2628;stroke-miterlimit:10;"/>
        <path d="M113.77,108H14.23 C8.6,108,4,103.4,4,97.77V30.28c0-5.63,4.6-10.23,10.23-10.23h99.54c5.63,0,10.23,4.6,10.23,10.23v67.48 C124,103.4,119.4,108,113.77,108z" style="opacity:0.61;fill:none;stroke:#000000;stroke-width:0.2627;stroke-miterlimit:10;"/>
      </g>
      <g>
        <g style="opacity:0.2;">
          <defs>
            <rect id="SVGID_2_" height="128" style="opacity:0.2;" width="128" x="0" y="0"/>
          </defs>
          <clipPath id="SVGID_5_">
            <use style="overflow:visible;" xlink:href="#SVGID_2_"/>
          </clipPath>
          <g style="clip-path:url(#SVGID_5_);">
            <g>
              <line style="fill:none;stroke:#000000;stroke-width:0.25;stroke-miterlimit:10;" x1="-28" x2="-28" y1="160" y2="-32"/>
              <line style="fill:none;stroke:#000000;stroke-width:0.25;stroke-miterlimit:10;" x1="-24" x2="-24" y1="160" y2="-32"/>
              <line style="fill:none;stroke:#000000;stroke-width:0.25;stroke-miterlimit:10;" x1="-20" x2="-20" y1="160" y2="-32"/>
              <line style="fill:none;stroke:#000000;stroke-width:0.25;stroke-miterlimit:10;" x1="-16" x2="-16" y1="160" y2="-32"/>
              <line style="fill:none;stroke:#000000;stroke-width:0.25;stroke-miterlimit:10;" x1="-12" x2="-12" y1="160" y2="-32"/>
              <line style="fill:none;stroke:#000000;stroke-width:0.25;stroke-miterlimit:10;" x1="-8" x2="-8" y1="160" y2="-32"/>
              <line style="fill:none;stroke:#000000;stroke-width:0.25;stroke-miterlimit:10;" x1="-4" x2="-4" y1="160" y2="-32"/>
              <line style="fill:none;stroke:#000000;stroke-width:0.25;stroke-miterlimit:10;" x1="0" x2="0" y1="160" y2="-32"/>
              <line style="fill:none;stroke:#000000;stroke-width:0.25;stroke-miterlimit:10;" x1="4" x2="4" y1="160" y2="-32"/>
              <line style="fill:none;stroke:#000000;stroke-width:0.25;stroke-miterlimit:10;" x1="8" x2="8" y1="160" y2="-32"/>
              <line style="fill:none;stroke:#000000;stroke-width:0.25;stroke-miterlimit:10;" x1="12" x2="12" y1="160" y2="-32"/>
              <line style="fill:none;stroke:#000000;stroke-width:0.25;stroke-miterlimit:10;" x1="16" x2="16" y1="160" y2="-32"/>
              <line style="fill:none;stroke:#000000;stroke-width:0.25;stroke-miterlimit:10;" x1="20" x2="20" y1="160" y2="-32"/>
              <line style="fill:none;stroke:#000000;stroke-width:0.25;stroke-miterlimit:10;" x1="24" x2="24" y1="160" y2="-32"/>
              <line style="fill:none;stroke:#000000;stroke-width:0.25;stroke-miterlimit:10;" x1="28" x2="28" y1="160" y2="-32"/>
              <line style="fill:none;stroke:#000000;stroke-width:0.25;stroke-miterlimit:10;" x1="32" x2="32" y1="160" y2="-32"/>
              <line style="fill:none;stroke:#000000;stroke-width:0.25;stroke-miterlimit:10;" x1="36" x2="36" y1="160" y2="-32"/>
              <line style="fill:none;stroke:#000000;stroke-width:0.25;stroke-miterlimit:10;" x1="40" x2="40" y1="160" y2="-32"/>
              <line style="fill:none;stroke:#000000;stroke-width:0.25;stroke-miterlimit:10;" x1="44" x2="44" y1="160" y2="-32"/>
              <line style="fill:none;stroke:#000000;stroke-width:0.25;stroke-miterlimit:10;" x1="48" x2="48" y1="160" y2="-32"/>
              <line style="fill:none;stroke:#000000;stroke-width:0.25;stroke-miterlimit:10;" x1="52" x2="52" y1="160" y2="-32"/>
              <line style="fill:none;stroke:#000000;stroke-width:0.25;stroke-miterlimit:10;" x1="56" x2="56" y1="160" y2="-32"/>
              <line style="fill:none;stroke:#000000;stroke-width:0.25;stroke-miterlimit:10;" x1="60" x2="60" y1="160" y2="-32"/>
              <line style="fill:none;stroke:#000000;stroke-width:0.25;stroke-miterlimit:10;" x1="64" x2="64" y1="160" y2="-32"/>
              <line style="fill:none;stroke:#000000;stroke-width:0.25;stroke-miterlimit:10;" x1="68" x2="68" y1="160" y2="-32"/>
              <line style="fill:none;stroke:#000000;stroke-width:0.25;stroke-miterlimit:10;" x1="72" x2="72" y1="160" y2="-32"/>
              <line style="fill:none;stroke:#000000;stroke-width:0.25;stroke-miterlimit:10;" x1="76" x2="76" y1="160" y2="-32"/>
              <line style="fill:none;stroke:#000000;stroke-width:0.25;stroke-miterlimit:10;" x1="80" x2="80" y1="160" y2="-32"/>
              <line style="fill:none;stroke:#000000;stroke-width:0.25;stroke-miterlimit:10;" x1="84" x2="84" y1="160" y2="-32"/>
              <line style="fill:none;stroke:#000000;stroke-width:0.25;stroke-miterlimit:10;" x1="88" x2="88" y1="160" y2="-32"/>
              <line style="fill:none;stroke:#000000;stroke-width:0.25;stroke-miterlimit:10;" x1="92" x2="92" y1="160" y2="-32"/>
              <line style="fill:none;stroke:#000000;stroke-width:0.25;stroke-miterlimit:10;" x1="96" x2="96" y1="160" y2="-32"/>
              <line style="fill:none;stroke:#000000;stroke-width:0.25;stroke-miterlimit:10;" x1="100" x2="100" y1="160" y2="-32"/>
              <line style="fill:none;stroke:#000000;stroke-width:0.25;stroke-miterlimit:10;" x1="104" x2="104" y1="160" y2="-32"/>
              <line style="fill:none;stroke:#000000;stroke-width:0.25;stroke-miterlimit:10;" x1="108" x2="108" y1="160" y2="-32"/>
              <line style="fill:none;stroke:#000000;stroke-width:0.25;stroke-miterlimit:10;" x1="112" x2="112" y1="160" y2="-32"/>
              <line style="fill:none;stroke:#000000;stroke-width:0.25;stroke-miterlimit:10;" x1="116" x2="116" y1="160" y2="-32"/>
              <line style="fill:none;stroke:#000000;stroke-width:0.25;stroke-miterlimit:10;" x1="120" x2="120" y1="160" y2="-32"/>
              <line style="fill:none;stroke:#000000;stroke-width:0.25;stroke-miterlimit:10;" x1="124" x2="124" y1="160" y2="-32"/>
              <line style="fill:none;stroke:#000000;stroke-width:0.25;stroke-miterlimit:10;" x1="128" x2="128" y1="160" y2="-32"/>
              <line style="fill:none;stroke:#000000;stroke-width:0.25;stroke-miterlimit:10;" x1="132" x2="132" y1="160" y2="-32"/>
              <line style="fill:none;stroke:#000000;stroke-width:0.25;stroke-miterlimit:10;" x1="136" x2="136" y1="160" y2="-32"/>
              <line style="fill:none;stroke:#000000;stroke-width:0.25;stroke-miterlimit:10;" x1="137" x2="137" y1="166.05" y2="-25.95"/>
              <line style="fill:none;stroke:#000000;stroke-width:0.25;stroke-miterlimit:10;" x1="144" x2="144" y1="160" y2="-32"/>
              <line style="fill:none;stroke:#000000;stroke-width:0.25;stroke-miterlimit:10;" x1="148" x2="148" y1="160" y2="-32"/>
              <line style="fill:none;stroke:#000000;stroke-width:0.25;stroke-miterlimit:10;" x1="152" x2="152" y1="160" y2="-32"/>
              <line style="fill:none;stroke:#000000;stroke-width:0.25;stroke-miterlimit:10;" x1="156" x2="156" y1="160" y2="-32"/>
            </g>
            <g>
              <line style="fill:none;stroke:#000000;stroke-width:0.25;stroke-miterlimit:10;" x1="-32" x2="160" y1="-28" y2="-28"/>
              <line style="fill:none;stroke:#000000;stroke-width:0.25;stroke-miterlimit:10;" x1="-32" x2="160" y1="-24" y2="-24"/>
              <line style="fill:none;stroke:#000000;stroke-width:0.25;stroke-miterlimit:10;" x1="-32" x2="160" y1="-20" y2="-20"/>
              <line style="fill:none;stroke:#000000;stroke-width:0.25;stroke-miterlimit:10;" x1="-32" x2="160" y1="-16" y2="-16"/>
              <line style="fill:none;stroke:#000000;stroke-width:0.25;stroke-miterlimit:10;" x1="-32" x2="160" y1="-12" y2="-12"/>
              <line style="fill:none;stroke:#000000;stroke-width:0.25;stroke-miterlimit:10;" x1="-32" x2="160" y1="-8" y2="-8"/>
              <line style="fill:none;stroke:#000000;stroke-width:0.25;stroke-miterlimit:10;" x1="-32" x2="160" y1="-4" y2="-4"/>
              <line style="fill:none;stroke:#000000;stroke-width:0.25;stroke-miterlimit:10;" x1="-32" x2="160" y1="0" y2="0"/>
              <line style="fill:none;stroke:#000000;stroke-width:0.25;stroke-miterlimit:10;" x1="-32" x2="160" y1="4" y2="4"/>
              <line style="fill:none;stroke:#000000;stroke-width:0.25;stroke-miterlimit:10;" x1="-32" x2="160" y1="8" y2="8"/>
              <line style="fill:none;stroke:#000000;stroke-width:0.25;stroke-miterlimit:10;" x1="-32" x2="160" y1="12" y2="12"/>
              <line style="fill:none;stroke:#000000;stroke-width:0.25;stroke-miterlimit:10;" x1="-32" x2="160" y1="16" y2="16"/>
              <line style="fill:none;stroke:#000000;stroke-width:0.25;stroke-miterlimit:10;" x1="-32" x2="160" y1="20" y2="20"/>
              <line style="fill:none;stroke:#000000;stroke-width:0.25;stroke-miterlimit:10;" x1="-32" x2="160" y1="24" y2="24"/>
              <line style="fill:none;stroke:#000000;stroke-width:0.25;stroke-miterlimit:10;" x1="-32" x2="160" y1="28" y2="28"/>
              <line style="fill:none;stroke:#000000;stroke-width:0.25;stroke-miterlimit:10;" x1="-32" x2="160" y1="32" y2="32"/>
              <line style="fill:none;stroke:#000000;stroke-width:0.25;stroke-miterlimit:10;" x1="-32" x2="160" y1="36" y2="36"/>
              <line style="fill:none;stroke:#000000;stroke-width:0.25;stroke-miterlimit:10;" x1="-32" x2="160" y1="40" y2="40"/>
              <line style="fill:none;stroke:#000000;stroke-width:0.25;stroke-miterlimit:10;" x1="-32" x2="160" y1="44" y2="44"/>
              <line style="fill:none;stroke:#000000;stroke-width:0.25;stroke-miterlimit:10;" x1="-32" x2="160" y1="48" y2="48"/>
              <line style="fill:none;stroke:#000000;stroke-width:0.25;stroke-miterlimit:10;" x1="-32" x2="160" y1="52" y2="52"/>
              <line style="fill:none;stroke:#000000;stroke-width:0.25;stroke-miterlimit:10;" x1="-32" x2="160" y1="56" y2="56"/>
              <line style="fill:none;stroke:#000000;stroke-width:0.25;stroke-miterlimit:10;" x1="-32" x2="160" y1="60" y2="60"/>
              <line style="fill:none;stroke:#000000;stroke-width:0.25;stroke-miterlimit:10;" x1="-32" x2="160" y1="64" y2="64"/>
              <line style="fill:none;stroke:#000000;stroke-width:0.25;stroke-miterlimit:10;" x1="-32" x2="160" y1="68" y2="68"/>
              <line style="fill:none;stroke:#000000;stroke-width:0.25;stroke-miterlimit:10;" x1="-32" x2="160" y1="72" y2="72"/>
              <line style="fill:none;stroke:#000000;stroke-width:0.25;stroke-miterlimit:10;" x1="-32" x2="160" y1="76" y2="76"/>
              <line style="fill:none;stroke:#000000;stroke-width:0.25;stroke-miterlimit:10;" x1="-32" x2="160" y1="80" y2="80"/>
              <line style="fill:none;stroke:#000000;stroke-width:0.25;stroke-miterlimit:10;" x1="-32" x2="160" y1="84" y2="84"/>
              <line style="fill:none;stroke:#000000;stroke-width:0.25;stroke-miterlimit:10;" x1="-32" x2="160" y1="88" y2="88"/>
              <line style="fill:none;stroke:#000000;stroke-width:0.25;stroke-miterlimit:10;" x1="-32" x2="160" y1="92" y2="92"/>
              <line style="fill:none;stroke:#000000;stroke-width:0.25;stroke-miterlimit:10;" x1="-32" x2="160" y1="96" y2="96"/>
              <line style="fill:none;stroke:#000000;stroke-width:0.25;stroke-miterlimit:10;" x1="-32" x2="160" y1="100" y2="100"/>
              <line style="fill:none;stroke:#000000;stroke-width:0.25;stroke-miterlimit:10;" x1="-32" x2="160" y1="104" y2="104"/>
              <line style="fill:none;stroke:#000000;stroke-width:0.25;stroke-miterlimit:10;" x1="-32" x2="160" y1="108" y2="108"/>
              <line style="fill:none;stroke:#000000;stroke-width:0.25;stroke-miterlimit:10;" x1="-32" x2="160" y1="112" y2="112"/>
              <line style="fill:none;stroke:#000000;stroke-width:0.25;stroke-miterlimit:10;" x1="-32" x2="160" y1="116" y2="116"/>
              <line style="fill:none;stroke:#000000;stroke-width:0.25;stroke-miterlimit:10;" x1="-32" x2="160" y1="120" y2="120"/>
              <line style="fill:none;stroke:#000000;stroke-width:0.25;stroke-miterlimit:10;" x1="-32" x2="160" y1="124" y2="124"/>
              <line style="fill:none;stroke:#000000;stroke-width:0.25;stroke-miterlimit:10;" x1="-32" x2="160" y1="128" y2="128"/>
              <line style="fill:none;stroke:#000000;stroke-width:0.25;stroke-miterlimit:10;" x1="-32" x2="160" y1="132" y2="132"/>
              <line style="fill:none;stroke:#000000;stroke-width:0.25;stroke-miterlimit:10;" x1="-32" x2="160" y1="136" y2="136"/>
              <line style="fill:none;stroke:#000000;stroke-width:0.25;stroke-miterlimit:10;" x1="-32" x2="160" y1="140" y2="140"/>
              <line style="fill:none;stroke:#000000;stroke-width:0.25;stroke-miterlimit:10;" x1="-32" x2="160" y1="144" y2="144"/>
              <line style="fill:none;stroke:#000000;stroke-width:0.25;stroke-miterlimit:10;" x1="-32" x2="160" y1="148" y2="148"/>
              <line style="fill:none;stroke:#000000;stroke-width:0.25;stroke-miterlimit:10;" x1="-32" x2="160" y1="152" y2="152"/>
              <line style="fill:none;stroke:#000000;stroke-width:0.25;stroke-miterlimit:10;" x1="-32" x2="160" y1="156" y2="156"/>
            </g>
            <path d="M159.75-31.75v191.5h-191.5v-191.5H159.75 M160-32H-32v192h192V-32L160-32z"/>
          </g>
        </g>
        <g>
          <rect height="128" style="opacity:0.3;fill:#F44336;" width="4" x="0" y="0"/>
          <rect height="128" style="opacity:0.3;fill:#F44336;" width="4" x="124" y="0"/>
          <rect height="120" style="opacity:0.3;fill:#F44336;" transform="matrix(-1.836970e-16 1 -1 -1.836970e-16 66 -62)" width="4" x="62" y="-58"/>
          <rect height="120" style="opacity:0.3;fill:#F44336;" transform="matrix(-1.836970e-16 1 -1 -1.836970e-16 190 62)" width="4" x="62" y="66"/>
        </g>
      </g>
    </g>
  </g>
</svg>
